X:1
T:ພາບນ້ອຍແທນນາງ
T:ເນື້ອຮ້ອງ & ທຳນອງ : ສ. ແສງສິຣິວັນ ນັກຮ້ອງຕົ້ນສະບັບ : ຄຳເຕີມ ຊານຸບານ
T:1965
T:© studiodavong
C:S. SENGSIRIVANH
Z:© studiodavong
%%score ( 1 2 )
L:1/8
Q:1/4=64
M:4/4
K:E
V:1 treble nm="Piano" snm="Pno."
V:2 treble 
V:1
"^Slow""_(Trompet ad lib.) ______________________________________________________________________________________" z4 z2 z3/2 c/4c/4 || %1
w: |
"C#m"[Q:1/4=70] c6 c/4d/4e/4f/4e/4d/4c/4B/4 |"B"{B^A} B- B4 z B/4c/4d/4e/4d/4c/4B/4=A/4 | %3
w: ||
"A"{AG} A- A4 z A/4B/4c/4d/4c/4B/4A/4G/4 |"G#7"[Q:1/4=50]{G^^F} G-G ^F/G/4F/4"C#" =F2 z (3^EGE || %5
w: ||
"^A"[Q:1/4=68] C z EC{G} BGFE |"C#m"[Q:1/4=64]{E} C3 D"B" EF{GB} G2 |"E" z cBG"A"{G} cec{B}c | %8
w: * ພາບ ແຜ່ນ ນ້ອຍ ທີ່ ນາງ ມອບ|ໃຫ້ ເຕືອນ ໃຈ ຄາວ ນັ້ນ|ຊັກ ພາ ໃຫ້ ຝັນ ທຸກ ວັນ ແລະ|
"E" (B4"G#7" G4) |"C#m" e3 d"C#" c{c} B2 d |"F#m" c3 d"B7" B(G/B/) F2 |"E" z BBG"F#" F3 (C/B,/) | %12
w: ຄືນ _|ຍາມ ຣຶ ທັຍ ອ້າຍ ທຸກ|ຕຣົມ ຣະ ທົມ ຂົມ- * ຂື່ນ|ເຫັນ ພາບ ແລ້ວ ຊື່ນ ສິ້ນ- *|
"B7"{B,} G4"B+" z4 |:"E""^B" z2 EC{G} BGFE |"C#m" C3 D"B" EF G2 |"E" z cBG"A" cec{B}c | %16
w: ໝອງ...|ພາບ ແຜ່ນ ນີ້ ມີ ຮອຍ ສ|ລັກ ຄວາມ ຮັກ ແອບ ແຝງ|ອ້າຍ ເຝົ້າ ແຕ່ ແຍງ ດ້ວຍ ໃຈ ໝາຍ|
"E" (B4"G#7" G4) |"C#m"{c} e3 d"C#" c B2 d |"F#m" c3 d"B7" BG F2 |"E" z C{F}EG"B7" B3 (F/G/) | %20
w: ປອງ _|ຫຼົງ ລະ ເມີ ກອດ ພາບ|ນາງ ແນບ ຂ້າງ ຄຽງ ຄອງ|ຈູບ ພາບ ແທນ ນ້ອງ ທຸກ- *|
"E""G#7" E8 ||"C#m""^C" C3 G"G#m" GcdG |"C#m" (G B3)"E" EFGB |"C#7" c2 BG"F#m" C2"B" FE | %24
w: ວັນ...|ຫາກ ມີ ມົນ ຄາ ຖາ ສັກ|ສິດ _ ຈະ ເສກ ສັນ ຊີ|ວິດ ໃຫ້ ສະ ຖິດ ໃນ ພາບ|
"E" (B4"G#7" G4) |"C#m"{c} e4"A" c d2 B |"F#m" c4"B7" cdBc |"E" !breath!GCEG"C#" B3 G | %28
w: ນັ້ນ _|ແມ່ນ ໃຈ ນ້ອງ ແປ|ຜັນ ມີ ຮັກ ອື່ນ ສັມ|ພັນ ຈະ ເອົາ ພາບ ນັ້ນ ແທນ|
"F#m""B+" F8 ||"E" z2 EC BGFE"^D" |"C#m" C3 D"B" EF G2 |"E" z cBG"A" cec{B}c |"E" (B4"G#7" G4) | %33
w: ນາງ...|ຊົມ ແຕ່ ພາບ ຍັງ ຊາບ ຊຶ້ງ|ໃຈ ຣຶ ທັຍ ສິ້ນ ໝອງ|ແມ່ນ ເປັນ ເຈົ້າ ຂອງ ອ້າຍ ຊົມ ມິ|ຈາງ _|
"C#m"{c} e3 d"C#" c B2 d |"F#m" c3 d"B7" BG F2 |"E" z CEG"B7"{G} B3 (F/G/)!dacoda! ||1 %36
w: ຂໍ ຊິດ ເຊີຍ ແຕ່ ພາບ|ດຽວ ຮັກ ດຽວ ພຽງ ນາງ|ຈົນ ກວ່າ ຄວາມ ຫວັງ ສົມ- *|
"E""A""Am""_(Solo verse B)" E8 :|2 %37
w: ປອງ...|
O"E""^E" E8"_(Trompet) _________________________________________________________________________" || %38
w: ປອງ...|
"F#m" F4 z F/F/ F/F/F/F/ |"E" G !>!B2 G"B7" !>!B2 cB |"G#7" dcB"C#m"c z z2 !arpeggio![EGBe]- | %41
w: |||
"E6" !fermata![EGBe]8!fine! |] %42
w: |
V:2
 x8 || x8 | x8 | x8 | x8 || x8 | x8 | x8 | x8 | x8 | x8 | x8 | x8 |: x8 | x8 | x8 | x8 | x8 | x8 | %19
 x8 | x8 || x8 | x8 | x8 | x8 | x8 | x8 | x8 | x8 || x8 | x8 | x8 | x8 | x8 | x8 | x8 ||1 x8 :|2 %37
 x6"C#7" z C || x8 | x8 | x8 | x8 |] %42

